juniorguru/images/logos/opengeolabs.svg

<svg width="466" height="353" viewBox="0 0 466 353" fill="none" xmlns="http://www.w3.org/2000/svg">
<path d="M135.309 40.1172C135.309 47.125 137.496 52.8672 141.871 57.3438C146.246 61.8203 151.586 64.0625 157.895 64.0625C164.301 64.0625 169.664 61.7969 173.992 57.2695C178.32 52.7422 180.48 47.0273 180.48 40.1172C180.48 33.1562 178.281 27.4297 173.883 22.9258C169.48 18.4219 164.152 16.1719 157.895 16.1719C151.344 16.1719 145.941 18.4727 141.688 23.0703C137.434 27.6719 135.309 33.3555 135.309 40.1172ZM120.566 40.1523C120.566 29.2031 124.184 20.2188 131.422 13.2031C138.656 6.1875 147.48 2.67969 157.895 2.67969C168.113 2.67969 176.891 6.13672 184.223 13.0547C191.555 19.9727 195.223 29.0078 195.223 40.1523C195.223 51.3008 191.566 60.3477 184.258 67.2891C176.949 74.2305 168.164 77.7031 157.895 77.7031C147.336 77.7031 138.473 74.1797 131.309 67.1406C124.148 60.1016 120.566 51.1055 120.566 40.1523Z" fill="#D34822"/>
<path d="M226.645 41.1797C226.645 45.0898 227.449 48.832 229.066 52.4023C230.676 55.9687 233.246 58.9648 236.766 61.3828C240.285 63.8047 244.414 65.0156 249.16 65.0156C255.809 65.0156 261.297 62.7891 265.625 58.3398C269.949 53.8906 272.113 47.7812 272.113 40.0078C272.113 32.4297 269.852 26.5117 265.328 22.2578C260.805 18.0039 255.66 15.8789 249.891 15.8789C243.734 15.8789 238.316 18.1875 233.648 22.8086C228.98 27.4297 226.645 33.5508 226.645 41.1797ZM212.93 101.16V17.0508H200.977V4.66016H226.863V15.8047C233.805 7.64062 242.215 3.55859 252.094 3.55859C262.066 3.55859 270.316 6.98047 276.844 13.8242C283.371 20.6719 286.633 29.5703 286.633 40.5195C286.633 52.0078 283.09 61.0781 276 67.7266C268.91 74.3789 260.844 77.7031 251.801 77.7031C242.414 77.7031 234.098 74.082 226.863 66.8477V101.16H240.652V113.555H199.949V101.16H212.93Z" fill="#D34822"/>
<path d="M357.566 33.5508C356.586 28.5664 353.996 24.0547 349.793 20.0234C345.586 15.9883 340.43 13.9727 334.32 13.9727C328.746 13.9727 323.977 15.793 320.02 19.4375C316.055 23.0781 313.637 27.7852 312.758 33.5508H357.566ZM371.941 43.6719H312.242C313.125 50.2266 315.715 55.5312 320.02 59.5859C324.32 63.6445 329.82 65.6758 336.52 65.6758C346.246 65.6758 353.949 61.7656 359.617 53.9414L371.941 59.3672C367.93 65.5781 362.723 70.1836 356.32 73.1914C349.914 76.1992 343.215 77.7031 336.223 77.7031C325.371 77.7031 316.094 74.3164 308.395 67.543C300.691 60.7734 296.844 51.6445 296.844 40.1523C296.844 29.25 300.594 20.2773 308.102 13.2383C315.605 6.19922 324.223 2.67578 333.949 2.67578C343.484 2.67578 352.125 6.11328 359.875 12.9805C367.625 19.8516 371.648 30.082 371.941 43.6719Z" fill="#D34822"/>
<path d="M410.457 4.65625V13.2383C419.402 6.78516 427.566 3.55859 434.949 3.55859C439.547 3.55859 443.348 4.64453 446.355 6.82031C449.363 8.99609 451.328 11.6602 452.258 14.8164C453.187 17.9688 453.652 22.5781 453.652 28.6406V63.2539H465.605V75.6484H439.719V29.2266C439.719 23.8477 438.91 20.3398 437.297 18.7031C435.684 17.0625 433.703 16.2461 431.359 16.2461C425.195 16.2461 418.23 19.2539 410.457 25.2656V63.2539H422.703V75.6484H384.055V63.2539H396.523V17.0508H384.055V4.65625H410.457Z" fill="#D34822"/>
<path d="M134.941 170.98C134.941 178.168 137.031 184.031 141.211 188.582C145.391 193.125 150.73 195.402 157.234 195.402C163.59 195.402 169.066 193.117 173.66 188.543C178.258 183.973 180.555 178.094 180.555 170.906C180.555 163.621 178.258 157.766 173.66 153.34C169.066 148.918 163.734 146.703 157.676 146.703C151.609 146.703 146.309 148.891 141.762 153.27C137.215 157.645 134.941 163.547 134.941 170.98ZM207.031 134.75V147.145H194.27V200.02C194.27 207.16 193.902 212.453 193.168 215.898C192.437 219.344 190.664 222.867 187.852 226.457C185.039 230.051 180.824 233.07 175.203 235.516C169.578 237.961 163.297 239.184 156.355 239.184C145.891 239.184 136.555 236.027 128.34 229.723L137.434 219.602C143.594 224.391 150.293 226.789 157.527 226.789C161.535 226.789 165.254 226.02 168.676 224.477C172.098 222.937 174.652 221.07 176.34 218.867C178.027 216.668 179.113 214.578 179.602 212.598C180.09 210.617 180.336 207.281 180.336 202.586V196.133C178.137 198.922 174.687 201.559 169.996 204.055C165.301 206.547 160.168 207.793 154.594 207.793C144.426 207.793 136.137 204.273 129.734 197.234C123.328 190.195 120.125 181.539 120.125 171.273C120.125 160.027 123.656 150.945 130.723 144.027C137.789 137.109 145.965 133.652 155.254 133.652C164.641 133.652 173.004 137.391 180.336 144.871V134.75H207.031Z" fill="#45A798"/>
<path d="M273.027 164.527C272.047 159.539 269.457 155.027 265.254 150.996C261.047 146.961 255.891 144.945 249.777 144.945C244.207 144.945 239.437 146.766 235.48 150.41C231.52 154.051 229.098 158.758 228.219 164.527H273.027ZM287.402 174.645H227.703C228.586 181.199 231.176 186.504 235.48 190.559C239.781 194.617 245.281 196.648 251.98 196.648C261.707 196.648 269.41 192.738 275.078 184.914L287.402 190.34C283.391 196.551 278.184 201.156 271.781 204.164C265.375 207.172 258.676 208.676 251.688 208.676C240.832 208.676 231.555 205.289 223.855 198.516C216.152 191.746 212.305 182.617 212.305 171.125C212.305 160.223 216.055 151.25 223.562 144.211C231.066 137.172 239.684 133.652 249.41 133.652C258.945 133.652 267.586 137.086 275.336 143.953C283.086 150.824 287.109 161.055 287.402 174.645Z" fill="#45A798"/>
<path d="M314.863 171.09C314.863 178.098 317.051 183.84 321.426 188.316C325.801 192.797 331.145 195.035 337.453 195.035C343.855 195.035 349.223 192.77 353.551 188.242C357.875 183.715 360.039 178 360.039 171.09C360.039 164.133 357.84 158.402 353.438 153.898C349.039 149.395 343.711 147.145 337.453 147.145C330.898 147.145 325.496 149.445 321.242 154.047C316.988 158.645 314.863 164.328 314.863 171.09ZM300.121 171.125C300.121 160.176 303.742 151.191 310.977 144.176C318.211 137.16 327.039 133.652 337.453 133.652C347.668 133.652 356.445 137.109 363.777 144.027C371.113 150.945 374.781 159.977 374.781 171.125C374.781 182.273 371.125 191.32 363.816 198.262C356.508 205.203 347.719 208.676 337.453 208.676C326.891 208.676 318.027 205.156 310.867 198.113C303.703 191.074 300.121 182.078 300.121 171.125Z" fill="#45A798"/>
<path d="M133.18 338.852V261.629H120.566V249.234H147.113V338.852H157.969V351.246H120.566V338.852H133.18Z" fill="#A68018"/>
<path d="M213.055 324.844C207.043 320.152 200.957 317.805 194.797 317.805C190.934 317.805 187.707 318.93 185.113 321.176C182.523 323.426 181.227 326.336 181.227 329.906C181.227 333.23 182.363 336.016 184.637 338.266C186.91 340.516 190.004 341.637 193.914 341.637C200.66 341.637 207.043 338.805 213.055 333.133V324.844ZM238.797 338.852V351.246H214.449V342.59C207.703 349.145 200.172 352.418 191.859 352.418C185.406 352.418 179.797 350.316 175.031 346.113C170.266 341.906 167.879 336.531 167.879 329.977C167.879 323.379 170.41 317.902 175.473 313.551C180.531 309.199 186.629 307.023 193.77 307.023C200.418 307.023 206.848 309.027 213.055 313.035V305.996C213.055 302.379 212.715 299.59 212.027 297.637C211.344 295.68 209.742 293.922 207.227 292.355C204.707 290.793 201.422 290.008 197.363 290.008C190.371 290.008 185.309 292.797 182.18 298.367L168.832 294.848C174.75 283.801 184.969 278.273 199.488 278.273C204.816 278.273 209.426 278.996 213.312 280.438C217.199 281.883 220.098 283.738 222.004 286.012C223.91 288.285 225.191 290.742 225.852 293.383C226.516 296.023 226.844 300.227 226.844 305.996V338.852H238.797Z" fill="#A68018"/>
<path d="M273.828 315.898C273.828 323.277 276.09 329.133 280.613 333.461C285.137 337.789 290.355 339.949 296.27 339.949C302.48 339.949 307.832 337.652 312.332 333.059C316.828 328.465 319.078 322.301 319.078 314.578C319.078 307.098 316.84 301.293 312.367 297.16C307.895 293.027 302.648 290.961 296.637 290.961C290.719 290.961 285.441 293.102 280.797 297.379C276.152 301.656 273.828 307.828 273.828 315.898ZM247.133 351.246V338.852H259.75V261.629H247.133V249.234H273.391V290.301C280.379 282.285 288.961 278.273 299.129 278.273C308.906 278.273 317.109 281.637 323.734 288.359C330.359 295.082 333.672 303.941 333.672 314.945C333.672 325.504 330.434 334.391 323.953 341.602C317.477 348.812 309.176 352.418 299.059 352.418C293.387 352.418 288.203 351.195 283.508 348.754C278.816 346.309 275.441 343.594 273.391 340.613V351.246H247.133Z" fill="#A68018"/>
<path d="M344.121 351.246V326.898H356.59V329.246C357.027 332.57 358.824 335.309 361.977 337.457C365.133 339.609 368.859 340.684 373.164 340.684C377.66 340.684 381.254 339.902 383.941 338.34C386.633 336.773 387.977 334.598 387.977 331.812C387.977 329.121 386.863 327.141 384.641 325.871C382.414 324.602 378 323.43 371.398 322.359C361.621 320.711 354.641 318.035 350.461 314.344C346.285 310.648 344.195 305.867 344.195 299.996C344.195 294.078 346.469 289.125 351.016 285.137C355.562 281.148 361.551 279.156 368.98 279.156C375.68 279.156 381.449 280.535 386.289 283.293V280.254H398.684V303.797H386.289V299.469C382.523 293.652 377.051 290.742 369.863 290.742C366.195 290.742 363.176 291.535 360.805 293.125C358.434 294.715 357.25 296.828 357.25 299.469C357.25 302.16 358.336 304.004 360.512 305.008C362.687 306.008 367.371 307.07 374.559 308.188C381.449 309.262 386.66 310.516 390.176 311.961C393.699 313.402 396.621 315.797 398.941 319.148C401.262 322.5 402.422 326.398 402.422 330.848C402.422 337.453 399.895 342.699 394.832 346.586C389.773 350.477 383.211 352.418 375.141 352.418C367.562 352.418 361.379 350.695 356.59 347.254V351.246H344.121Z" fill="#A68018"/>
<path d="M0 0L80.3711 33.7578L80.3789 46.7109L0 80.3789V67.5156L66.8164 40.2656L0 12.8633V0Z" fill="#D34822"/>
</svg>

<?xml version="1.0" encoding="UTF-8"?>
<svg width="466" height="353" viewBox="0 0 466 353" xmlns="http://www.w3.org/2000/svg">
 <path d="m135.31 40.117c0 7.0078 2.187 12.75 6.562 17.227 4.375 4.4765 9.715 6.7187 16.024 6.7187 6.406 0 11.769-2.2656 16.097-6.793 4.328-4.5273 6.488-10.242 6.488-17.152 0-6.961-2.199-12.688-6.597-17.191-4.403-4.5039-9.731-6.7539-15.988-6.7539-6.551 0-11.954 2.3008-16.207 6.8984-4.254 4.6016-6.379 10.285-6.379 17.047zm-14.743 0.0351c0-10.949 3.618-19.934 10.856-26.949 7.234-7.0156 16.058-10.523 26.473-10.523 10.218 0 18.996 3.457 26.328 10.375 7.332 6.918 11 15.953 11 27.098 0 11.148-3.657 20.195-10.965 27.137-7.309 6.9414-16.094 10.414-26.363 10.414-10.559 0-19.422-3.5234-26.586-10.562-7.161-7.039-10.743-16.035-10.743-26.988z" fill="#D34822"/>
 <path d="m226.64 41.18c0 3.9101 0.804 7.6523 2.421 11.223 1.61 3.5664 4.18 6.5625 7.7 8.9805 3.519 2.4219 7.648 3.6328 12.394 3.6328 6.649 0 12.137-2.2265 16.465-6.6758 4.324-4.4492 6.488-10.559 6.488-18.332 0-7.5781-2.261-13.496-6.785-17.75-4.523-4.2539-9.668-6.3789-15.437-6.3789-6.157 0-11.575 2.3086-16.243 6.9297s-7.003 10.742-7.003 18.371zm-13.715 59.98v-84.109h-11.953v-12.391h25.886v11.145c6.942-8.1641 15.352-12.246 25.231-12.246 9.972 0 18.222 3.4219 24.75 10.266 6.527 6.8477 9.789 15.746 9.789 26.695 0 11.488-3.543 20.559-10.633 27.207-7.09 6.6523-15.156 9.9765-24.199 9.9765-9.387 0-17.703-3.6211-24.938-10.855v34.312h13.789v12.395h-40.703v-12.395h12.981z" fill="#D34822"/>
 <path d="m357.57 33.551c-0.98-4.9844-3.57-9.4961-7.773-13.527-4.207-4.0351-9.363-6.0507-15.473-6.0507-5.574 0-10.343 1.8203-14.3 5.4648-3.965 3.6406-6.383 8.3477-7.262 14.113h44.808zm14.375 10.121h-59.699c0.883 6.5547 3.473 11.859 7.778 15.914 4.3 4.0586 9.8 6.0899 16.5 6.0899 9.726 0 17.429-3.9102 23.097-11.734l12.324 5.4258c-4.011 6.2109-9.218 10.816-15.621 13.824-6.406 3.0078-13.105 4.5117-20.097 4.5117-10.852 0-20.129-3.3867-27.828-10.16-7.704-6.7696-11.551-15.898-11.551-27.391 0-10.902 3.75-19.875 11.258-26.914 7.503-7.0391 16.121-10.563 25.847-10.563 9.535 0 18.176 3.4375 25.926 10.305 7.75 6.8711 11.773 17.102 12.066 30.691z" fill="#D34822"/>
 <path d="m410.46 4.6562v8.582c8.945-6.4531 17.109-9.6797 24.492-9.6797 4.598 0 8.399 1.0859 11.406 3.2617 3.008 2.1758 4.973 4.8399 5.903 7.9961 0.929 3.1524 1.394 7.7617 1.394 13.824v34.613h11.953v12.394h-25.886v-46.422c0-5.3789-0.809-8.8868-2.422-10.524-1.613-1.6406-3.594-2.457-5.938-2.457-6.164 0-13.129 3.0078-20.902 9.0195v37.988h12.246v12.394h-38.648v-12.394h12.468v-46.203h-12.468v-12.395h26.402z" fill="#D34822"/>
 <path d="m134.94 170.98c0 7.188 2.09 13.051 6.27 17.602 4.18 4.543 9.519 6.82 16.023 6.82 6.356 0 11.832-2.285 16.426-6.859 4.598-4.57 6.895-10.449 6.895-17.637 0-7.285-2.297-13.14-6.895-17.566-4.594-4.422-9.926-6.637-15.984-6.637-6.067 0-11.367 2.188-15.914 6.567-4.547 4.375-6.821 10.277-6.821 17.71zm72.09-36.23v12.395h-12.761v52.875c0 7.14-0.368 12.433-1.102 15.878-0.731 3.446-2.504 6.969-5.316 10.559-2.813 3.594-7.028 6.613-12.649 9.059-5.625 2.445-11.906 3.668-18.848 3.668-10.464 0-19.8-3.157-28.015-9.461l9.094-10.121c6.16 4.789 12.859 7.187 20.093 7.187 4.008 0 7.727-0.769 11.149-2.312 3.422-1.54 5.976-3.407 7.664-5.61 1.687-2.199 2.773-4.289 3.262-6.269 0.488-1.981 0.734-5.317 0.734-10.012v-6.453c-2.199 2.789-5.649 5.426-10.34 7.922-4.695 2.492-9.828 3.738-15.402 3.738-10.168 0-18.457-3.52-24.86-10.559-6.406-7.039-9.609-15.695-9.609-25.961 0-11.246 3.531-20.328 10.598-27.246 7.066-6.918 15.242-10.375 24.531-10.375 9.387 0 17.75 3.739 25.082 11.219v-10.121h26.695z" fill="#45A798"/>
 <path d="m273.03 164.53c-0.98-4.988-3.57-9.5-7.773-13.531-4.207-4.035-9.363-6.051-15.477-6.051-5.57 0-10.34 1.821-14.297 5.465-3.96 3.641-6.382 8.348-7.261 14.117h44.808zm14.375 10.118h-59.699c0.883 6.554 3.473 11.859 7.777 15.914 4.301 4.058 9.801 6.089 16.5 6.089 9.727 0 17.43-3.91 23.098-11.734l12.324 5.426c-4.011 6.211-9.218 10.816-15.621 13.824-6.406 3.008-13.105 4.512-20.093 4.512-10.856 0-20.133-3.387-27.833-10.16-7.703-6.77-11.55-15.899-11.55-27.391 0-10.902 3.75-19.875 11.257-26.914 7.504-7.039 16.122-10.559 25.848-10.559 9.535 0 18.176 3.434 25.926 10.301 7.75 6.871 11.773 17.102 12.066 30.692z" fill="#45A798"/>
 <path d="m314.86 171.09c0 7.008 2.188 12.75 6.563 17.226 4.375 4.481 9.719 6.719 16.027 6.719 6.402 0 11.77-2.265 16.098-6.793 4.324-4.527 6.488-10.242 6.488-17.152 0-6.957-2.199-12.688-6.601-17.192-4.399-4.503-9.727-6.753-15.985-6.753-6.555 0-11.957 2.3-16.211 6.902-4.254 4.598-6.379 10.281-6.379 17.043zm-14.742 0.035c0-10.949 3.621-19.934 10.856-26.949 7.234-7.016 16.062-10.524 26.476-10.524 10.215 0 18.992 3.457 26.324 10.375 7.336 6.918 11.004 15.95 11.004 27.098s-3.656 20.195-10.965 27.137c-7.308 6.941-16.097 10.414-26.363 10.414-10.562 0-19.426-3.52-26.586-10.563-7.164-7.039-10.746-16.035-10.746-26.988z" fill="#45A798"/>
 <path d="m133.18 338.85v-77.223h-12.614v-12.395h26.547v89.618h10.856v12.394h-37.403v-12.394h12.614z" fill="#A68018"/>
 <path d="m213.06 324.84c-6.012-4.692-12.098-7.039-18.258-7.039-3.863 0-7.09 1.125-9.684 3.371-2.59 2.25-3.886 5.16-3.886 8.73 0 3.324 1.136 6.11 3.41 8.36 2.273 2.25 5.367 3.371 9.277 3.371 6.746 0 13.129-2.832 19.141-8.504v-8.289zm25.742 14.008v12.394h-24.348v-8.656c-6.746 6.555-14.277 9.828-22.59 9.828-6.453 0-12.062-2.102-16.828-6.305-4.765-4.207-7.152-9.582-7.152-16.136 0-6.598 2.531-12.075 7.594-16.426 5.058-4.352 11.156-6.528 18.297-6.528 6.648 0 13.078 2.004 19.285 6.012v-7.039c0-3.617-0.34-6.406-1.028-8.359-0.683-1.957-2.285-3.715-4.8-5.282-2.52-1.562-5.805-2.347-9.864-2.347-6.992 0-12.054 2.789-15.183 8.359l-13.348-3.519c5.918-11.047 16.137-16.575 30.656-16.575 5.328 0 9.938 0.723 13.824 2.165 3.887 1.445 6.786 3.3 8.692 5.574 1.906 2.273 3.187 4.73 3.848 7.371 0.664 2.64 0.992 6.844 0.992 12.613v32.856h11.953z" fill="#A68018"/>
 <path d="m273.83 315.9c0 7.379 2.262 13.235 6.785 17.563 4.524 4.328 9.742 6.488 15.657 6.488 6.21 0 11.562-2.297 16.062-6.89 4.496-4.594 6.746-10.758 6.746-18.481 0-7.48-2.238-13.285-6.711-17.418-4.472-4.133-9.719-6.199-15.73-6.199-5.918 0-11.196 2.141-15.84 6.418-4.645 4.277-6.969 10.449-6.969 18.519zm-26.695 35.348v-12.394h12.617v-77.223h-12.617v-12.395h26.258v41.067c6.988-8.016 15.57-12.028 25.738-12.028 9.777 0 17.98 3.364 24.605 10.086 6.625 6.723 9.938 15.582 9.938 26.586 0 10.559-3.238 19.446-9.719 26.657-6.476 7.21-14.777 10.816-24.894 10.816-5.672 0-10.856-1.223-15.551-3.664-4.692-2.445-8.067-5.16-10.117-8.141v10.633h-26.258z" fill="#A68018"/>
 <path d="m344.12 351.25v-24.348h12.469v2.348c0.437 3.324 2.234 6.063 5.387 8.211 3.156 2.152 6.882 3.227 11.187 3.227 4.496 0 8.09-0.782 10.777-2.344 2.692-1.567 4.036-3.742 4.036-6.528 0-2.691-1.114-4.671-3.336-5.941-2.227-1.269-6.641-2.441-13.243-3.512-9.777-1.648-16.757-4.324-20.937-8.015-4.176-3.696-6.266-8.477-6.266-14.348 0-5.918 2.274-10.871 6.821-14.859 4.546-3.989 10.535-5.981 17.964-5.981 6.7 0 12.469 1.379 17.309 4.137v-3.039h12.395v23.543h-12.395v-4.328c-3.766-5.817-9.238-8.727-16.426-8.727-3.668 0-6.687 0.793-9.058 2.383s-3.555 3.703-3.555 6.344c0 2.691 1.086 4.535 3.262 5.539 2.175 1 6.859 2.062 14.047 3.18 6.89 1.074 12.101 2.328 15.617 3.773 3.523 1.441 6.445 3.836 8.765 7.187 2.321 3.352 3.481 7.25 3.481 11.7 0 6.605-2.527 11.851-7.59 15.738-5.059 3.891-11.621 5.832-19.691 5.832-7.579 0-13.762-1.723-18.551-5.164v3.992h-12.469z" fill="#A68018"/>
 <path d="M0 0L80.3711 33.7578L80.3789 46.7109L0 80.3789V67.5156L66.8164 40.2656L0 12.8633V0Z" fill="#D34822"/>
</svg>
